Modules/BetterCms.Module.Root/Scss/base_64/icons/cp-stick-handle.svg

<svg xmlns="http://www.w3.org/2000/svg" width="18" height="10" viewBox="0 0 18 10">
 <path fill="#a0a0a0" fill-rule="evenodd" d="m9.529 10v-1h8.471v1h-8.471m-6.353-4h14.824v1h-14.824v-1m2.118-3h12.706v1h-12.706v-1m-5.294-3h18v1h-18v-1"/>
</svg>

<svg xmlns="http://www.w3.org/2000/svg" preserveAspectRatio="xMidYMid" width="18" height="10" viewBox="0 0 18 10">
  <path fill="#a0a0a0" fill-rule="evenodd" d="M9.529,10.000 L9.529,9.000 L18.000,9.000 L18.000,10.000 L9.529,10.000 ZM3.176,6.000 L18.000,6.000 L18.000,7.000 L3.176,7.000 L3.176,6.000 ZM5.294,3.000 L18.000,3.000 L18.000,4.000 L5.294,4.000 L5.294,3.000 ZM-0.000,-0.000 L18.000,-0.000 L18.000,1.000 L-0.000,1.000 L-0.000,-0.000 Z"/>
</svg>
